svg/300/sharp/e911_emergency.svg

<svg xmlns="http://www.w3.org/2000/svg" width="48" height="48" viewBox="0 -960 960 960"><path d="M221.155-180.001v-45.384h59.076l93.154-309.999h213.23l93.154 309.999h59.076v45.384h-517.69Zm107.691-45.384h302.308l-78.769-264.616h-144.77l-78.769 264.616Zm128.462-431.538v-165.383h45.384v165.383h-45.384Zm225.769 94.154-32.615-32.615 117.615-116.615 31.614 31.615-116.614 117.615Zm61.539 193.154v-45.384h165.383v45.384H744.616ZM276.923-562.769 160.309-680.384l31.614-31.615 117.615 116.615-32.615 32.615ZM50.001-369.615v-45.384h165.383v45.384H50.001ZM480-225.385Z"/></svg>

<svg xmlns="http://www.w3.org/2000/svg" width="48" height="48" viewBox="0 -960 960 960"><path d="M221.15-180v-45.39h59.08l93.16-309.99h213.22l93.16 309.99h59.08V-180h-517.7Zm107.7-45.39h302.3L552.39-490H407.61l-78.76 264.61Zm128.46-431.53v-165.39h45.38v165.39h-45.38Zm225.77 94.15-32.62-32.61L768.08-712l31.61 31.62-116.61 117.61Zm61.54 193.15V-415H910v45.38H744.62Zm-467.7-193.15L160.31-680.38 191.92-712l117.62 116.62-32.62 32.61ZM50-369.62V-415h165.38v45.38H50Zm430 144.23Z"/></svg>
